images/font.svg

<svg width="720" height="512" viewBox="0 0 720 512" fill="none" xmlns="http://www.w3.org/2000/svg">
<rect width="720" height="512" fill="white"/>
<rect x="2.5" y="2.5" width="715" height="507" stroke="#563A5F" stroke-opacity="0.1" stroke-width="5"/>
<rect width="720" height="512" fill="#ECEDED" fill-opacity="0.1"/>
<rect x="2.5" y="2.5" width="715" height="507" stroke="#563A5F" stroke-opacity="0.1" stroke-width="5"/>
<path d="M123.75 220.05C127.55 219.15 131.65 218.55 136.05 218.25C140.45 217.95 144.8 217.8 149.1 217.8C153.7 217.8 158.35 218.25 163.05 219.15C167.85 220.05 172.2 221.7 176.1 224.1C180 226.5 183.15 229.8 185.55 234C188.05 238.2 189.3 243.55 189.3 250.05C189.3 256.45 188.15 261.85 185.85 266.25C183.55 270.65 180.5 274.25 176.7 277.05C172.9 279.75 168.55 281.7 163.65 282.9C158.75 284.1 153.7 284.7 148.5 284.7C148 284.7 147.15 284.7 145.95 284.7C144.85 284.7 143.65 284.7 142.35 284.7C141.15 284.6 139.95 284.5 138.75 284.4C137.55 284.3 136.7 284.2 136.2 284.1V324H123.75V220.05ZM149.4 228.6C146.8 228.6 144.3 228.65 141.9 228.75C139.5 228.85 137.6 229.1 136.2 229.5V273C136.7 273.2 137.5 273.35 138.6 273.45C139.7 273.45 140.85 273.5 142.05 273.6C143.25 273.6 144.4 273.6 145.5 273.6C146.6 273.6 147.4 273.6 147.9 273.6C151.3 273.6 154.65 273.3 157.95 272.7C161.35 272 164.4 270.8 167.1 269.1C169.8 267.4 171.95 265 173.55 261.9C175.25 258.8 176.1 254.85 176.1 250.05C176.1 245.95 175.3 242.55 173.7 239.85C172.2 237.05 170.15 234.85 167.55 233.25C165.05 231.55 162.2 230.35 159 229.65C155.8 228.95 152.6 228.6 149.4 228.6ZM272.995 230.1H240.295V324H227.845V230.1H195.145V219H272.995V230.1ZM369.783 297.3C369.783 293.1 368.533 289.7 366.033 287.1C363.533 284.4 360.383 282.05 356.583 280.05C352.883 277.95 348.833 276 344.433 274.2C340.033 272.4 335.933 270.25 332.133 267.75C328.433 265.15 325.333 262 322.833 258.3C320.333 254.5 319.083 249.7 319.083 243.9C319.083 235.7 321.933 229.2 327.633 224.4C333.333 219.6 341.433 217.2 351.933 217.2C358.033 217.2 363.583 217.65 368.583 218.55C373.583 219.45 377.483 220.6 380.283 222L376.533 232.95C374.233 231.85 370.833 230.8 366.333 229.8C361.933 228.8 356.933 228.3 351.333 228.3C344.733 228.3 339.783 229.8 336.483 232.8C333.183 235.7 331.533 239.15 331.533 243.15C331.533 247.05 332.783 250.3 335.283 252.9C337.783 255.5 340.883 257.85 344.583 259.95C348.383 261.95 352.483 263.95 356.883 265.95C361.283 267.95 365.333 270.3 369.033 273C372.833 275.6 375.983 278.75 378.483 282.45C380.983 286.15 382.233 290.75 382.233 296.25C382.233 300.75 381.433 304.8 379.833 308.4C378.233 312 375.883 315.1 372.783 317.7C369.683 320.3 365.933 322.3 361.533 323.7C357.133 325.1 352.133 325.8 346.533 325.8C339.033 325.8 332.833 325.2 327.933 324C323.033 322.9 319.233 321.65 316.533 320.25L320.733 309C323.033 310.3 326.433 311.6 330.933 312.9C335.433 314.1 340.483 314.7 346.083 314.7C349.383 314.7 352.483 314.4 355.383 313.8C358.283 313.1 360.783 312.05 362.883 310.65C364.983 309.15 366.633 307.3 367.833 305.1C369.133 302.9 369.783 300.3 369.783 297.3ZM399.67 254.55C403.47 252.25 407.87 250.55 412.87 249.45C417.97 248.35 423.27 247.8 428.77 247.8C433.97 247.8 438.12 248.5 441.22 249.9C444.42 251.3 446.82 253.15 448.42 255.45C450.12 257.65 451.22 260.1 451.72 262.8C452.32 265.5 452.62 268.2 452.62 270.9C452.62 276.9 452.47 282.75 452.17 288.45C451.87 294.15 451.72 299.55 451.72 304.65C451.72 308.35 451.87 311.85 452.17 315.15C452.47 318.45 453.02 321.5 453.82 324.3H444.97L441.82 313.8H441.07C440.17 315.2 439.02 316.6 437.62 318C436.32 319.3 434.72 320.5 432.82 321.6C430.92 322.6 428.72 323.45 426.22 324.15C423.72 324.85 420.87 325.2 417.67 325.2C414.47 325.2 411.47 324.7 408.67 323.7C405.97 322.7 403.62 321.3 401.62 319.5C399.62 317.6 398.02 315.35 396.82 312.75C395.72 310.15 395.17 307.2 395.17 303.9C395.17 299.5 396.07 295.85 397.87 292.95C399.67 289.95 402.17 287.6 405.37 285.9C408.67 284.1 412.57 282.85 417.07 282.15C421.67 281.35 426.72 280.95 432.22 280.95C433.62 280.95 434.97 280.95 436.27 280.95C437.67 280.95 439.07 281.05 440.47 281.25C440.77 278.25 440.92 275.55 440.92 273.15C440.92 267.65 439.82 263.8 437.62 261.6C435.42 259.4 431.42 258.3 425.62 258.3C423.92 258.3 422.07 258.45 420.07 258.75C418.17 258.95 416.17 259.3 414.07 259.8C412.07 260.2 410.12 260.75 408.22 261.45C406.42 262.05 404.82 262.75 403.42 263.55L399.67 254.55ZM420.97 314.7C423.77 314.7 426.27 314.35 428.47 313.65C430.67 312.85 432.57 311.9 434.17 310.8C435.77 309.6 437.07 308.3 438.07 306.9C439.17 305.5 439.97 304.15 440.47 302.85V290.4C439.07 290.3 437.62 290.25 436.12 290.25C434.72 290.15 433.32 290.1 431.92 290.1C428.82 290.1 425.77 290.3 422.77 290.7C419.87 291 417.27 291.65 414.97 292.65C412.77 293.55 410.97 294.85 409.57 296.55C408.27 298.15 407.62 300.2 407.62 302.7C407.62 306.2 408.87 309.1 411.37 311.4C413.87 313.6 417.07 314.7 420.97 314.7ZM523.434 324V281.25C523.434 273.45 522.284 267.6 519.984 263.7C517.784 259.7 513.684 257.7 507.684 257.7C502.384 257.7 497.984 259.15 494.484 262.05C491.084 264.85 488.684 268.4 487.284 272.7V324H475.284V249H483.684L485.934 258.15H486.534C488.934 254.95 492.134 252.35 496.134 250.35C500.234 248.25 505.084 247.2 510.684 247.2C514.784 247.2 518.384 247.7 521.484 248.7C524.584 249.6 527.134 251.25 529.134 253.65C531.234 256.05 532.784 259.3 533.784 263.4C534.884 267.4 535.434 272.5 535.434 278.7V324H523.434ZM590.316 303.6C590.316 300.6 589.416 298.25 587.616 296.55C585.816 294.85 583.566 293.45 580.866 292.35C578.266 291.15 575.366 290.05 572.166 289.05C569.066 287.95 566.166 286.6 563.466 285C560.866 283.3 558.666 281.15 556.866 278.55C555.066 275.95 554.166 272.45 554.166 268.05C554.166 260.85 556.216 255.6 560.316 252.3C564.416 248.9 570.116 247.2 577.416 247.2C582.816 247.2 587.316 247.7 590.916 248.7C594.616 249.6 597.816 250.7 600.516 252L597.666 261.9C595.366 260.8 592.566 259.85 589.266 259.05C586.066 258.15 582.616 257.7 578.916 257.7C574.516 257.7 571.266 258.45 569.166 259.95C567.166 261.45 566.166 264.05 566.166 267.75C566.166 270.35 567.066 272.4 568.866 273.9C570.666 275.3 572.866 276.6 575.466 277.8C578.166 278.9 581.066 280 584.166 281.1C587.366 282.2 590.266 283.65 592.866 285.45C595.566 287.25 597.816 289.55 599.616 292.35C601.416 295.05 602.316 298.65 602.316 303.15C602.316 306.35 601.766 309.35 600.666 312.15C599.666 314.95 598.066 317.35 595.866 319.35C593.666 321.35 590.916 322.9 587.616 324C584.416 325.2 580.616 325.8 576.216 325.8C570.516 325.8 565.666 325.25 561.666 324.15C557.666 323.05 554.316 321.75 551.616 320.25L555.216 310.05C557.516 311.35 560.516 312.55 564.216 313.65C567.916 314.75 571.666 315.3 575.466 315.3C579.766 315.3 583.316 314.45 586.116 312.75C588.916 311.05 590.316 308 590.316 303.6Z" fill="black"/>
</svg>

<svg fill="none" height="512" viewBox="0 0 720 512" width="720" xmlns="http://www.w3.org/2000/svg"><path d="m0 0h720v512h-720z" fill="#fff"/><path d="m2.5 2.5h715v507h-715z" stroke="#563a5f" stroke-opacity=".1" stroke-width="5"/><path d="m0 0h720v512h-720z" fill="#eceded" fill-opacity=".1"/><path d="m2.5 2.5h715v507h-715z" stroke="#563a5f" stroke-opacity=".1" stroke-width="5"/><path d="m123.75 220.05c3.8-.9 7.9-1.5 12.3-1.8s8.75-.45 13.05-.45c4.6 0 9.25.45 13.95 1.35 4.8.9 9.15 2.55 13.05 4.95s7.05 5.7 9.45 9.9c2.5 4.2 3.75 9.55 3.75 16.05 0 6.4-1.15 11.8-3.45 16.2s-5.35 8-9.15 10.8c-3.8 2.7-8.15 4.65-13.05 5.85s-9.95 1.8-15.15 1.8c-.5 0-1.35 0-2.55 0-1.1 0-2.3 0-3.6 0-1.2-.1-2.4-.2-3.6-.3s-2.05-.2-2.55-.3v39.9h-12.45zm25.65 8.55c-2.6 0-5.1.05-7.5.15s-4.3.35-5.7.75v43.5c.5.2 1.3.35 2.4.45 1.1 0 2.25.05 3.45.15h3.45 2.4c3.4 0 6.75-.3 10.05-.9 3.4-.7 6.45-1.9 9.15-3.6s4.85-4.1 6.45-7.2c1.7-3.1 2.55-7.05 2.55-11.85 0-4.1-.8-7.5-2.4-10.2-1.5-2.8-3.55-5-6.15-6.6-2.5-1.7-5.35-2.9-8.55-3.6s-6.4-1.05-9.6-1.05zm123.595 1.5h-32.7v93.9h-12.45v-93.9h-32.7v-11.1h77.85zm96.788 67.2c0-4.2-1.25-7.6-3.75-10.2-2.5-2.7-5.65-5.05-9.45-7.05-3.7-2.1-7.75-4.05-12.15-5.85s-8.5-3.95-12.3-6.45c-3.7-2.6-6.8-5.75-9.3-9.45-2.5-3.8-3.75-8.6-3.75-14.4 0-8.2 2.85-14.7 8.55-19.5s13.8-7.2 24.3-7.2c6.1 0 11.65.45 16.65 1.35s8.9 2.05 11.7 3.45l-3.75 10.95c-2.3-1.1-5.7-2.15-10.2-3.15-4.4-1-9.4-1.5-15-1.5-6.6 0-11.55 1.5-14.85 4.5-3.3 2.9-4.95 6.35-4.95 10.35 0 3.9 1.25 7.15 3.75 9.75s5.6 4.95 9.3 7.05c3.8 2 7.9 4 12.3 6s8.45 4.35 12.15 7.05c3.8 2.6 6.95 5.75 9.45 9.45s3.75 8.3 3.75 13.8c0 4.5-.8 8.55-2.4 12.15s-3.95 6.7-7.05 9.3-6.85 4.6-11.25 6-9.4 2.1-15 2.1c-7.5 0-13.7-.6-18.6-1.8-4.9-1.1-8.7-2.35-11.4-3.75l4.2-11.25c2.3 1.3 5.7 2.6 10.2 3.9 4.5 1.2 9.55 1.8 15.15 1.8 3.3 0 6.4-.3 9.3-.9 2.9-.7 5.4-1.75 7.5-3.15 2.1-1.5 3.75-3.35 4.95-5.55 1.3-2.2 1.95-4.8 1.95-7.8zm29.887-42.75c3.8-2.3 8.2-4 13.2-5.1 5.1-1.1 10.4-1.65 15.9-1.65 5.2 0 9.35.7 12.45 2.1 3.2 1.4 5.6 3.25 7.2 5.55 1.7 2.2 2.8 4.65 3.3 7.35.6 2.7.9 5.4.9 8.1 0 6-.15 11.85-.45 17.55s-.45 11.1-.45 16.2c0 3.7.15 7.2.45 10.5s.85 6.35 1.65 9.15h-8.85l-3.15-10.5h-.75c-.9 1.4-2.05 2.8-3.45 4.2-1.3 1.3-2.9 2.5-4.8 3.6-1.9 1-4.1 1.85-6.6 2.55s-5.35 1.05-8.55 1.05-6.2-.5-9-1.5c-2.7-1-5.05-2.4-7.05-4.2-2-1.9-3.6-4.15-4.8-6.75-1.1-2.6-1.65-5.55-1.65-8.85 0-4.4.9-8.05 2.7-10.95 1.8-3 4.3-5.35 7.5-7.05 3.3-1.8 7.2-3.05 11.7-3.75 4.6-.8 9.65-1.2 15.15-1.2h4.05c1.4 0 2.8.1 4.2.3.3-3 .45-5.7.45-8.1 0-5.5-1.1-9.35-3.3-11.55s-6.2-3.3-12-3.3c-1.7 0-3.55.15-5.55.45-1.9.2-3.9.55-6 1.05-2 .4-3.95.95-5.85 1.65-1.8.6-3.4 1.3-4.8 2.1zm21.3 60.15c2.8 0 5.3-.35 7.5-1.05 2.2-.8 4.1-1.75 5.7-2.85 1.6-1.2 2.9-2.5 3.9-3.9 1.1-1.4 1.9-2.75 2.4-4.05v-12.45c-1.4-.1-2.85-.15-4.35-.15-1.4-.1-2.8-.15-4.2-.15-3.1 0-6.15.2-9.15.6-2.9.3-5.5.95-7.8 1.95-2.2.9-4 2.2-5.4 3.9-1.3 1.6-1.95 3.65-1.95 6.15 0 3.5 1.25 6.4 3.75 8.7 2.5 2.2 5.7 3.3 9.6 3.3zm102.464 9.3v-42.75c0-7.8-1.15-13.65-3.45-17.55-2.2-4-6.3-6-12.3-6-5.3 0-9.7 1.45-13.2 4.35-3.4 2.8-5.8 6.35-7.2 10.65v51.3h-12v-75h8.4l2.25 9.15h.6c2.4-3.2 5.6-5.8 9.6-7.8 4.1-2.1 8.95-3.15 14.55-3.15 4.1 0 7.7.5 10.8 1.5 3.1.9 5.65 2.55 7.65 4.95 2.1 2.4 3.65 5.65 4.65 9.75 1.1 4 1.65 9.1 1.65 15.3v45.3zm66.882-20.4c0-3-.9-5.35-2.7-7.05s-4.05-3.1-6.75-4.2c-2.6-1.2-5.5-2.3-8.7-3.3-3.1-1.1-6-2.45-8.7-4.05-2.6-1.7-4.8-3.85-6.6-6.45s-2.7-6.1-2.7-10.5c0-7.2 2.05-12.45 6.15-15.75 4.1-3.4 9.8-5.1 17.1-5.1 5.4 0 9.9.5 13.5 1.5 3.7.9 6.9 2 9.6 3.3l-2.85 9.9c-2.3-1.1-5.1-2.05-8.4-2.85-3.2-.9-6.65-1.35-10.35-1.35-4.4 0-7.65.75-9.75 2.25-2 1.5-3 4.1-3 7.8 0 2.6.9 4.65 2.7 6.15 1.8 1.4 4 2.7 6.6 3.9 2.7 1.1 5.6 2.2 8.7 3.3 3.2 1.1 6.1 2.55 8.7 4.35 2.7 1.8 4.95 4.1 6.75 6.9 1.8 2.7 2.7 6.3 2.7 10.8 0 3.2-.55 6.2-1.65 9-1 2.8-2.6 5.2-4.8 7.2s-4.95 3.55-8.25 4.65c-3.2 1.2-7 1.8-11.4 1.8-5.7 0-10.55-.55-14.55-1.65s-7.35-2.4-10.05-3.9l3.6-10.2c2.3 1.3 5.3 2.5 9 3.6s7.45 1.65 11.25 1.65c4.3 0 7.85-.85 10.65-2.55s4.2-4.75 4.2-9.15z" fill="#000"/></svg>
